X:1
T:Title
L:1/8
M:4/4
K:Eb
V:1 treble nm="Grand Piano"
V:1
 z4 z[Q:1/4=100] CGG | G2 G2 A2 GA | G2 F2 G2 FG | F2 EE F2 EF | E2 D2 C2 G2 | G3 G cBAB | %6
 AG G2 dccB | BA A2 cBAB |[M:5/8] A2 G2 z |[M:3/8] c c2 |[M:4/4] c2 c2 c2 c2 | eddc B2 BB | %12
 B3 B B2 B2 | dcBA A2 A2 | A2 AA A2 Ac | BA G2 G2 G2 | G2 G2 =B2 =AB | c4 c2 c2 | c2 c2 c2 c2 | %19
 eddc B2 BB | B3 B B2 B2 | dcBA A2 A2 | A2 AA A2 Ac | BA G2 G2 G2 | G2 D2 F2 DF | ED C4 z2 |] %26

